src/lib/packages/icons/src/assets/line/sofa.svg

<svg xmlns="http://www.w3.org/2000/svg" width="24" height="24" fill="none"><path fill="currentColor" d="M19.75 7.367V7A2.753 2.753 0 0 0 17 4.25H7A2.753 2.753 0 0 0 4.25 7v.367a2.745 2.745 0 0 0-2 2.633v5c0 2.418 1.332 3.75 3.75 3.75h1.25V20a.75.75 0 0 0 1.5 0v-1.25h6.5V20a.75.75 0 0 0 1.5 0v-1.25H18c2.418 0 3.75-1.332 3.75-3.75v-5a2.745 2.745 0 0 0-2-2.633ZM7 5.75h10c.689 0 1.25.561 1.25 1.25v.367a2.745 2.745 0 0 0-2 2.633v3.25h-8.5V10a2.745 2.745 0 0 0-2-2.633V7c0-.689.561-1.25 1.25-1.25ZM20.25 15c0 1.577-.673 2.25-2.25 2.25H6c-1.577 0-2.25-.673-2.25-2.25v-5c0-.689.561-1.25 1.25-1.25s1.25.561 1.25 1.25v4c0 .414.336.75.75.75h10a.75.75 0 0 0 .75-.75v-4c0-.689.561-1.25 1.25-1.25s1.25.561 1.25 1.25v5Z"/></svg>

<svg width="24" height="24" viewBox="0 0 24 24" fill="none" xmlns="http://www.w3.org/2000/svg">
<path d="M19.75 7.367V7C19.75 5.484 18.517 4.25 17 4.25H7C5.483 4.25 4.25 5.484 4.25 7V7.367C3.099 7.696 2.25 8.745 2.25 10V15C2.25 17.418 3.582 18.75 6 18.75H7.25V20C7.25 20.414 7.586 20.75 8 20.75C8.414 20.75 8.75 20.414 8.75 20V18.75H15.25V20C15.25 20.414 15.586 20.75 16 20.75C16.414 20.75 16.75 20.414 16.75 20V18.75H18C20.418 18.75 21.75 17.418 21.75 15V10C21.75 8.745 20.901 7.696 19.75 7.367ZM7 5.75H17C17.689 5.75 18.25 6.311 18.25 7V7.367C17.099 7.696 16.25 8.745 16.25 10V13.25H7.75V10C7.75 8.745 6.901 7.696 5.75 7.367V7C5.75 6.311 6.311 5.75 7 5.75ZM20.25 15C20.25 16.577 19.577 17.25 18 17.25H6C4.423 17.25 3.75 16.577 3.75 15V10C3.75 9.311 4.311 8.75 5 8.75C5.689 8.75 6.25 9.311 6.25 10V14C6.25 14.414 6.586 14.75 7 14.75H17C17.414 14.75 17.75 14.414 17.75 14V10C17.75 9.311 18.311 8.75 19 8.75C19.689 8.75 20.25 9.311 20.25 10V15Z" fill="currentColor"/>
</svg>
